X: 31737
T: Pat McGillarney
R: jig
M: 6/8
K: Dmixolydian
|:c|A2d cAG|Add cAG|GFD DED|GFD DED|
A2d cAG|Ad^c d2e|fed cAG|Ad^c d2:|
|:e|~f3 fed|~e3 f2e|~d3 def|edB ABd|
~f3 fed|~e3 efg|fed cAG|Ad^c d2:|

